!!!!SEGMENT: pl-kk--kk-i-111--006-001_anonim--deo-gratias-paschale-1mum.krn
!!!id: 18xx:2567
!!!COM: Anonim
!!!COM-rism: pe30004985
!!!CDT:
!!!CNT:
!!!OTL: Deo gratias – Paschale 1mum
!!!PDT: 1824
!!!SMS-siglum: PL-Kk
!!!SMS-shelfmark: Kk.I.111
!!!NIFC-rismID: 1001157681
!!!URL-scan: http://repozytorium.nifc.pl/skany/pl-kk-nut--i-111
!!!ONB-nifc: UWAGA: A, T1, T2. Podział na poszególne Deo gratias. A: skan 0003 (m.in)
!!!SMS-variant:
!!!SMS-altvar:
**kern	**text	**kern	**text	**kern	**text
*part3	*part3	*part2	*part2	*part1	*part1
*staff3	*staff3	*staff2	*staff2	*staff1	*staff1
*I"Tenore Vagante.	*	*I"Tenore Chorale.	*	*I"Alto.	*
*I'T 2	*	*I'T 1	*	*I'A	*
*clefC4	*	*clefC4	*	*clefC3	*
*k[]	*	*k[]	*	*k[]	*
*M2/1	*	*M2/1	*	*M2/1	*
*all\right	*	*all\right	*	*all\right	*
*2\right	*	*2\right	*	*2\right	*
=1-	=1-	=1-	=1-	=1-	=1-
!	!	!LO:TX:t=P:problem:kreska pseudotaktowa	!	!LO:TX:t=P:problem:kreska pseudotaktowa	!
2r	.	1c	De-	1r	.
1c	De-	.	.	.	.
!	!	!LO:TX:t=P:problem:kreska pseudotaktowa	!	!	!
.	.	1d	.	2r	.
!LO:TX:t=P:problem:kreska pseudotaktowa	!	!	!	!	!
2B\	.	.	.	2ryy	.
=2	=2-	=2	=2-	=2-	=2-
!	!	!LO:TX:t=P:problem:kreska pseudotaktowa	!	!LO:TX:t=P:problem:all\right	!
2c\	-o	1c	-o	2g\	De-
!LO:TX:t=P:problem:kreska pseudotaktowa	!	!	!	!LO:TX:t=P:problem:kreska pseudotaktowa	!
2A\	.	.	.	2f#X\	.
!	!	!LO:TX:t=P:problem:kreska pseudotaktowa	!	!	!
2.B\	gra-	1B	.	2g\	-o
!	!	!	!	!LO:TX:t=P:problem:kreska pseudotaktowa	!
.	.	.	.	2e\	.
!LO:TX:t=P:problem:kreska pseudotaktowa	!	!	!	!	!
4c\	.	.	.	.	.
=3	=3-	=3	=3-	=3	=3-
!	!	!LO:TX:t=P:problem:kreska pseudotaktowa	!	!	!
2d\	.	1A	.	2.fn\	gra-
4c\	.	.	.	.	.
!LO:TX:t=P:problem:kreska pseudotaktowa	!	!	!	!LO:TX:t=P:problem:kreska pseudotaktowa	!
4B\	.	.	.	4g\	.
4A\	.	0c	.	2a\	.
4B\	.	.	.	.	.
!LO:TX:t=P:problem:kreska pseudotaktowa	!	!	!	!LO:TX:t=P:problem:kreska pseudotaktowa	!
2c\	.	.	.	2g\	.
=4	=4-	=4-	=4-	=4	=4-
!	!	!LO:TX:t=P:problem:kreska pseudotaktowa	!	!	!
2A\	.	.	.	2f\	.
!LO:TX:t=P:problem:kreska pseudotaktowa	!	!	!	!LO:TX:t=P:problem:kreska pseudotaktowa	!
2G/	.	.	.	2e\	-ti-
!	!	!LO:TX:t=P:problem:kreska pseudotaktowa	!	!	!
2F/	.	1A	.	2f\	-as
!LO:TX:t=P:problem:kreska pseudotaktowa	!	!	!	!LO:TX:t=P:problem:kreska pseudotaktowa	!
2A/	-ti-	.	.	2d\	De-
=5	=5-	=5	=5-	=5	=5-
!	!	!LO:TX:t=P:problem:kreska pseudotaktowa	!	!	!
2G/	-as	1c	.	2.e\	-o
1c	De-	.	.	.	.
!	!	!	!	!LO:TX:t=P:problem:kreska pseudotaktowa	!
.	.	.	.	4f\	.
!	!	!LO:TX:t=P:problem:kreska pseudotaktowa	!	!	!
.	.	1G	.	2g\	gra-
!	!	!	!	!LO:TX:t=P:problem:kreska pseudotaktowa	!
4B\	.	.	.	2e\	.
!LO:TX:t=P:problem:kreska pseudotaktowa	!	!	!	!	!
4A\	.	.	.	.	.
=6	=6-	=6	=6-	=6	=6-
!LO:TX:t=P:problem:kreska pseudotaktowa	!	!LO:TX:t=P:problem:kreska pseudotaktowa	!	!	!
1d	-o	1F	.	1f	.
!	!	!LO:TX:t=P:problem:kreska pseudotaktowa	!	!	!
2c\	gra-	1A	gra-	2.e\	.
1A\	.	.	.	.	.
.	.	.	.	8d\L	.
!	!	!	!	!LO:TX:t=P:problem:kreska pseudotaktowa	!
.	.	.	.	8c\J	.
=7-	=7-	=7	=7-	=7	=7-
!	!	!LO:TX:t=P:problem:kreska pseudotaktowa	!	!	!
.	.	1B	.	2d\	.
!LO:TX:a:t=sic&colon;s=2G	!	!	!	!	!
!LO:TX:t=P:problem:kreska pseudotaktowa	!	!	!	!LO:TX:t=P:problem:kreska pseudotaktowa	!
2G#X/	.	.	.	2g\	-ti-
!	!	!LO:TX:t=P:problem:kreska pseudotaktowa	!	!LO:TX:t=P:problem:kreska pseudotaktowa	!
2A\	.	1c	.	1e	-as
!LO:TX:t=P:problem:kreska pseudotaktowa	!	!	!	!	!
2c\	.	.	.	.	.
=8	=8-	=8	=8-	=8	=8-
!	!	!LO:TX:t=P:problem:kreska pseudotaktowa	!	!	!
2d\	.	1B	.	2f\	De-
!LO:TX:t=P:problem:kreska pseudotaktowa	!	!	!	!LO:TX:t=P:problem:kreska pseudotaktowa	!
2e\	.	.	.	2g\	.
!LO:LB:g=original	!	!	!	!LO:LB:g=original	!
!	!	!LO:TX:t=P:problem:kreska pseudotaktowa	!	!	!
2c\	.	1A	.	2c\	-o
!	!	!	!	!LO:TX:t=P:problem:kreska pseudotaktowa	!
1d\	.	.	.	2f\	.
=9-	=9-	=9	=9-	=9	=9-
!	!	!LO:TX:t=P:problem:kreska pseudotaktowa	!	!	!
.	.	1G	.	4e\	gra-
.	.	.	.	4f\	.
!LO:TX:t=P:problem:kreska pseudotaktowa	!	!	!	!	!
2c\	-ti-	.	.	4g\	.
!	!	!	!	!LO:TX:t=P:problem:kreska pseudotaktowa	!
.	.	.	.	4e\	.
2d\	-as	1.A	.	2f#X\	.
!LO:TX:t=P:problem:kreska pseudotaktowa	!	!	!	!	!
2e\	De-	.	.	1g\	.
=10	=10-	=10-	=10-	=10-	=10-
2d\	-o	.	.	.	.
!LO:TX:t=P:problem:kreska pseudotaktowa:między nutą a kropką	!	!LO:TX:t=P:problem:kreska pseudotaktowa	!	!LO:TX:t=P:problem:kreska pseudotaktowa	!
2.d\	gra-	2A\	-ti-	2f#X\	-ti-
!	!	!LO:TX:a:t=7	!	!LO:TX:t=P:problem:kreska pseudotaktowa	!
.	.	000G;	-as.	1g	-as
4c\	.	.	.	.	.
4B\	.	.	.	.	.
!LO:TX:t=P:problem:kreska pseudotaktowa	!	!	!	!	!
4A\	.	.	.	.	.
=11	=11-	=11-	=11-	=11	=11-
4G\	.	.	.	2r	.
4A\	.	.	.	.	.
!LO:TX:t=P:problem:kreska pseudotaktowa	!	!	!	!LO:TX:t=P:problem:kreska pseudotaktowa:między nutą a kropką	!
2B\	.	.	.	2.g\	De-
2.c\	.	.	.	.	.
.	.	.	.	4f\	.
.	.	.	.	4e\	.
!LO:TX:t=P:problem:kreska pseudotaktowa	!	!	!	!LO:TX:t=P:problem:kreska pseudotaktowa	!
4d\	.	.	.	4d\	.
=12	=12-	=12-	=12-	=12	=12-
2e\	.	.	.	2c\	-o
!LO:TX:t=P:problem:kreska pseudotaktowa	!	!	!	!LO:TX:t=P:problem:kreska pseudotaktowa	!
2d\	.	.	.	2d\	.
1.c	.	.	.	1.e	gra-
=13-	=13-	=13-	=13-	=13-	=13-
.	.	.	.	.	.
!LO:TX:t=P:problem:kreska pseudotaktowa	!	!	!	!LO:TX:t=P:problem:kreska pseudotaktowa	!
2c\	-ti-	.	.	2e\	-ti-
0B;	-as.	.	.	0d;	-as.
=14-	=14-	=14-	=14-	=14-	=14-
.	.	.	.	.	.
==	=-	==	=-	==	=-
*-	*-	*-	*-	*-	*-
!!!system-decoration: [(s1,s2,s3)]
!!!ENC:Kamil Watkowski
!!!END:2021-08-04
